google-analytics-dashboard-for-wp/lite/assets/vue/img/badge-light.svg

<svg width="178" height="58" viewBox="0 0 785 197" fill="none" xmlns="http://www.w3.org/2000/svg">
<g clip-path="url(#clip0_318_8)">
<path d="M747.114 3.69403H65.1642C44.2403 3.69403 27.2781 20.6562 27.2781 41.5801V155.238C27.2781 176.162 44.2403 193.125 65.1642 193.125H747.114C768.038 193.125 785 176.162 785 155.238V41.5801C785 20.6562 768.038 3.69403 747.114 3.69403Z" fill="white"/>
<mask id="mask0_318_8" style="mask-type:alpha" maskUnits="userSpaceOnUse" x="27" y="3" width="758" height="191">
<path d="M747.114 3.69403H65.1642C44.2403 3.69403 27.2781 20.6562 27.2781 41.5801V155.238C27.2781 176.162 44.2403 193.125 65.1642 193.125H747.114C768.038 193.125 785 176.162 785 155.238V41.5801C785 20.6562 768.038 3.69403 747.114 3.69403Z" fill="white"/>
</mask>
<g mask="url(#mask0_318_8)">
<path d="M43.3209 120.289H101.097C108.296 131.181 120.656 138.474 134.674 138.474H43.3209C38.301 138.474 34.2283 134.401 34.2283 129.381C34.2283 124.361 38.301 120.289 43.3209 120.289Z" fill="#E63060"/>
<path d="M25.2311 107.454C20.2112 107.454 16.1384 103.382 16.1384 98.3617C16.1384 93.3418 20.2112 89.269 25.2311 89.269H95.6519C94.9889 92.1579 94.61 95.2361 94.61 98.3617C94.61 101.487 94.9889 104.518 95.6519 107.454H25.2311Z" fill="#A735DF"/>
<path d="M7.09266 76.4351C2.07276 76.4351 -2 72.3624 -2 67.3425C-2 62.3226 2.07276 58.2498 7.09266 58.2498H132.448C132.164 58.2498 131.88 58.2498 131.596 58.2972H131.454C131.17 58.2972 130.885 58.3445 130.507 58.3445H130.365C130.08 58.3445 129.844 58.3919 129.559 58.3919H129.417C129.133 58.4392 128.849 58.4392 128.565 58.534H128.328C127.76 58.5813 127.144 58.7708 126.576 58.8181H126.339C126.055 58.9602 125.818 59.0075 125.534 59.0075H125.297L124.634 59.197L124.398 59.2917C124.113 59.339 123.877 59.4338 123.592 59.5285H123.45C123.45 59.5285 123.024 59.7179 122.787 59.8126H122.503L121.84 60.0968H121.556C121.272 60.2388 121.035 60.2862 120.751 60.4756H120.609L120.041 60.7598L119.756 60.9018C119.756 60.9018 119.33 61.1386 119.093 61.186L118.809 61.3281L118.288 61.5649L118.004 61.7069C118.004 61.7069 117.578 61.9437 117.341 61.9911L117.057 62.1331L116.631 62.3699L116.11 62.6541L115.684 62.8909L115.305 63.1277L114.926 63.3644L114.405 63.6486L114.121 63.8854L113.742 64.1222L113.221 64.4063L112.842 64.6431L112.605 64.7852C112.179 65.0693 111.658 65.4482 111.232 65.7323H111.185C110.901 66.0165 110.616 66.2533 110.285 66.4427H110.238C109.811 66.8689 109.29 67.2478 108.864 67.5793V67.674C105.881 70.1366 103.276 73.0728 101.145 76.3404H7.09266V76.4351Z" fill="#6433F9"/>
<path d="M177.011 98.3619C177.011 74.9672 158.068 56.0242 134.674 56.0242C111.279 56.0242 92.3359 74.9672 92.3359 98.3619C92.3359 121.757 111.279 140.7 134.674 140.7C158.068 140.7 177.011 121.709 177.011 98.3619ZM98.6819 98.3619C98.6819 78.4717 114.783 62.4175 134.626 62.4175C154.469 62.4175 170.571 78.519 170.571 98.3619C170.571 118.205 154.469 134.306 134.626 134.306C114.783 134.306 98.6819 118.157 98.6819 98.3619Z" fill="#210F59"/>
<path d="M213.477 42.7166L143.293 2.41524C137.752 -0.80508 131.454 -0.80508 125.866 2.41524L55.6817 42.7166C55.0187 43.0954 54.3556 43.5217 53.7874 43.9479H87.2692L134.295 17.0014C134.295 17.0014 134.579 16.8593 134.674 16.8593C134.769 16.8593 134.958 16.9067 135.053 17.0014L205.237 57.3027C205.237 57.3027 205.474 57.4448 205.521 57.5395C205.569 57.6816 205.569 57.9184 205.569 57.9657V138.853C205.569 138.853 205.569 139.231 205.521 139.279C205.521 139.326 205.284 139.421 205.237 139.516L135.053 179.817C135.053 179.817 134.769 179.959 134.674 179.959C134.579 179.959 134.39 179.912 134.295 179.817L87.3166 152.87H53.8347C54.403 153.297 125.913 194.403 125.913 194.403C131.454 197.623 137.752 197.623 143.341 194.403L213.525 154.102C219.113 150.834 222.333 145.293 222.333 138.853V57.9657C222.333 51.4777 219.16 45.8895 213.572 42.7166H213.477Z" fill="#210F59"/>
<path d="M134.675 115.174C143.957 115.174 151.439 107.644 151.439 98.4091C151.439 89.1744 143.909 81.6445 134.675 81.6445C125.44 81.6445 117.91 89.1744 117.91 98.4091C117.91 107.644 125.44 115.174 134.675 115.174Z" fill="#210F59"/>
<path d="M285.187 114.46V104.308H304.574V93.4667H285.187V82.5398H307.306V72H273V125H308V114.46H285.187Z" fill="#210F59"/>
<path d="M351 125L336.887 105.532L348.756 89H335.463L330.673 96.3381L325.666 89H312.331L324.199 105.532L310 125H323.336L330.5 114.511L337.664 125H350.957H351Z" fill="#210F59"/>
<path d="M379.355 88.8736V92.8483C376.654 89.3977 371.651 88 367.888 88C358.722 88 350 95.2069 350 107C350 118.793 358.722 126 367.888 126C371.695 126 376.699 124.602 379.355 121.152V125.301H391V88.8736H379.355ZM370.411 115.211C365.807 115.211 361.866 111.63 361.866 107C361.866 102.37 365.807 98.7885 370.411 98.7885C375.016 98.7885 378.868 102.283 378.868 107C378.868 111.717 374.928 115.211 370.411 115.211Z" fill="#210F59"/>
<path d="M416.515 126C423.345 126 428.564 122.561 432 117.425L423.345 111.81C421.903 113.986 419.018 115.292 416.6 115.292C411.424 115.292 408.412 111.549 408.412 106.978C408.412 102.408 411.467 98.7079 416.6 98.7079C419.018 98.7079 421.903 100.014 423.345 102.19L432 96.575C428.606 91.4387 423.345 88 416.515 88C406.206 88 397 95.3998 397 106.935C397 118.47 406.206 125.956 416.515 125.956V126Z" fill="#210F59"/>
<path d="M453.314 88.9947V76H441.676V88.9947H435V97.5859H441.676V125H453.314V97.5859H461V89.0379H453.314V88.9947Z" fill="#210F59"/>
<path d="M529 125L522.4 72H516.018L497 111.32L477.896 72H471.513L465 125H471.904L476.81 84.6047L493.961 119.235H500.083L517.103 84.6047L522.053 125H528.957H529Z" fill="#210F59"/>
<path d="M571.956 106.891C571.956 95.3295 564.206 88 553.785 88C543.363 88 535 95.3295 535 106.891C535 118.452 543.363 126 553.785 126C560.834 126 567.402 122.728 570.643 116.402L564.688 114.046C562.63 117.711 558.514 119.587 554.047 119.587C547.786 119.587 543.101 116.402 542.05 109.901H571.825C571.912 108.898 572 107.894 572 106.847L571.956 106.891ZM542.093 104.099C543.188 97.5545 547.567 94.4133 553.785 94.4133C560.002 94.4133 564.293 97.8599 565.125 104.099H542.093Z" fill="#210F59"/>
<path d="M596 88.7587H588.195V75H581.468V88.7587H575V94.5747H581.468V125H588.195V94.5747H596V88.7587Z" fill="#210F59"/>
<path d="M618.747 88.0434C613.993 88.0434 610.566 90.6893 608.724 97.0223V88.7808H602V125H608.724V111.727C608.724 102.184 611.551 94.5064 618.704 94.5064C620.074 94.5064 622.002 94.8101 623.929 95.7644L625 89.388C623.929 88.694 621.317 88 618.79 88L618.747 88.0434Z" fill="#210F59"/>
<path d="M633.955 80.0072C636.727 80.0072 639 78.0585 639 75.5036C639 72.9487 636.727 71 633.955 71C631.182 71 629 72.9487 629 75.5036C629 78.0585 631.273 80.0072 633.955 80.0072ZM630.455 125H637.545V88.8412H630.455V125Z" fill="#210F59"/>
<path d="M664.318 125.913C669.954 125.913 674.859 123.729 678 120.147L673.784 115.692C671.546 118.051 668.319 119.536 664.533 119.536C657.477 119.536 651.755 114.469 651.755 106.956C651.755 99.4437 657.434 94.377 664.533 94.377C668.319 94.377 671.546 95.8621 673.784 98.2207L678 93.7655C674.859 90.2713 669.911 88 664.318 88C653.992 88 645 95.4253 645 107C645 118.575 653.992 126 664.318 126V125.913Z" fill="#210F59"/>
<path d="M695.713 125.956C703.386 125.956 710 121.812 710 115.049C710 110.905 708.016 106.367 700.387 104.535L694.964 103.226C692.583 102.703 690.246 101.35 690.246 98.8634C690.246 96.0712 692.627 93.9334 696.154 93.9334C699.065 93.9334 701.975 95.8094 702.063 98.6016H708.677C708.677 91.2721 702.195 88 695.978 88C688.57 88 683.367 92.6246 683.367 98.6016C683.367 104.579 686.894 107.414 693.068 109.072L698.094 110.25C701.005 110.861 703.121 112.257 703.121 115.006C703.121 117.972 700.343 120.067 695.713 120.067C691.083 120.067 688.482 117.493 688.394 114.351H682C682.309 121.855 689.099 126 695.713 126V125.956Z" fill="#210F59"/>
</g>
<path d="M747.114 6.06192H65.1642C45.548 6.06192 29.646 21.964 29.646 41.5801V155.238C29.646 174.855 45.548 190.757 65.1642 190.757H747.114C766.73 190.757 782.632 174.855 782.632 155.238V41.5801C782.632 21.964 766.73 6.06192 747.114 6.06192Z" stroke="#E0E0E0" stroke-width="4.73576"/>
<g clip-path="url(#clip1_318_8)">
<path d="M132.418 53.0819C107.635 54.4735 88.6496 75.7559 90.0794 100.558C91.5092 125.36 112.798 144.351 137.582 142.959C162.365 141.568 181.35 120.285 179.921 95.483C178.491 70.6809 157.282 51.6904 132.418 53.0819Z" fill="#210F59"/>
<path d="M132.776 58.648C111.09 59.8758 94.4087 78.5389 95.6399 100.312C96.8712 122.004 115.538 138.703 137.304 137.434C158.989 136.206 175.671 117.543 174.44 95.7694C173.169 74.0777 154.541 57.3792 132.776 58.648Z" fill="#D5FEEF"/>
<path d="M165.026 117.543C169.038 111.363 171.183 103.914 170.785 95.9741C169.872 80.2579 158.989 67.4884 144.612 63.5184C143.46 77.1064 142.268 90.4489 140.997 104.16C145.803 106.083 158.155 112.304 165.026 117.584V117.543Z" fill="white"/>
<path d="M132.18 63.0273C113.274 64.0914 98.8173 80.2988 99.9691 99.2074C100.168 101.868 100.565 104.487 101.319 106.902C101.24 106.37 101.2 105.797 101.2 105.224C99.9691 83.2456 116.69 64.4598 138.614 63.191H138.813C136.708 63.0273 134.444 62.9045 132.22 63.0273H132.18Z" fill="white"/>
<path d="M128.923 114.965C129.757 115.865 131.227 115.865 132.061 114.965L157.123 89.0164C157.957 88.116 157.957 86.6426 157.123 85.7421L154.065 82.5498C153.23 81.6494 151.84 81.6494 151.006 82.5498L130.552 103.75L120.94 93.8458C120.106 92.9454 118.716 92.9454 117.882 93.8458L114.824 97.0382C113.989 97.9386 113.989 99.412 114.824 100.312L128.963 114.965H128.923Z" fill="#22BB84"/>
</g>
</g>
<defs>
<clipPath id="clip0_318_8">
<rect width="785" height="196.818" fill="white"/>
</clipPath>
<clipPath id="clip1_318_8">
<rect width="90" height="90" fill="white" transform="translate(90 53)"/>
</clipPath>
</defs>
</svg>

<svg width="178" height="58" viewBox="0 0 785 197" fill="none" xmlns="http://www.w3.org/2000/svg"><g clip-path="url(#clip0_318_8)"><path d="M747.114 3.694H65.164c-20.924 0-37.886 16.962-37.886 37.886v113.658c0 20.924 16.962 37.887 37.886 37.887h681.95c20.924 0 37.886-16.963 37.886-37.887V41.58c0-20.924-16.962-37.886-37.886-37.886z" fill="#fff"/><mask id="a" style="mask-type:alpha" maskUnits="userSpaceOnUse" x="27" y="3" width="758" height="191"><path d="M747.114 3.694H65.164c-20.924 0-37.886 16.962-37.886 37.886v113.658c0 20.924 16.962 37.887 37.886 37.887h681.95c20.924 0 37.886-16.963 37.886-37.887V41.58c0-20.924-16.962-37.886-37.886-37.886z" fill="#fff"/></mask><g mask="url(#a)"><path d="M43.32 120.289h57.777c7.199 10.892 19.559 18.185 33.577 18.185H43.321c-5.02 0-9.093-4.073-9.093-9.093s4.073-9.092 9.093-9.092z" fill="#E63060"/><path d="M25.231 107.454c-5.02 0-9.093-4.072-9.093-9.092 0-5.02 4.073-9.093 9.093-9.093h70.42a40.844 40.844 0 00-1.041 9.093c0 3.125.379 6.156 1.042 9.092h-70.42z" fill="#A735DF"/><path d="M7.093 76.435C2.073 76.435-2 72.362-2 67.342s4.073-9.092 9.093-9.092h125.355c-.284 0-.568 0-.852.047h-.142c-.284 0-.569.047-.947.047h-.142c-.285 0-.521.048-.806.048h-.142c-.284.047-.568.047-.852.142h-.237c-.568.047-1.184.237-1.752.284h-.237c-.284.142-.521.19-.805.19h-.237l-.663.189-.236.095c-.285.047-.521.142-.806.236h-.142s-.426.19-.663.285h-.284l-.663.284h-.284c-.284.142-.521.19-.805.379h-.142l-.568.284-.285.142s-.426.237-.663.284l-.284.142-.521.237-.284.142s-.426.237-.663.284l-.284.142-.426.237-.521.284-.426.237-.379.237-.379.236-.521.285-.284.236-.379.237-.521.284-.379.237-.237.142c-.426.284-.947.663-1.373.947h-.047a4.251 4.251 0 01-.9.71h-.047c-.427.427-.948.806-1.374 1.137v.095a38.539 38.539 0 00-7.719 8.666H7.093v.095z" fill="#6433F9"/><path d="M177.011 98.362c0-23.395-18.943-42.338-42.337-42.338-23.395 0-42.338 18.943-42.338 42.338s18.943 42.338 42.338 42.338c23.394 0 42.337-18.991 42.337-42.338zm-78.33 0c0-19.89 16.102-35.944 35.945-35.944s35.945 16.101 35.945 35.944c0 19.843-16.102 35.944-35.945 35.944s-35.944-16.149-35.944-35.944z" fill="#210F59"/><path d="M213.477 42.717L143.293 2.415c-5.541-3.22-11.839-3.22-17.427 0L55.682 42.717a18.79 18.79 0 00-1.895 1.23H87.27l47.026-26.946s.284-.142.379-.142c.095 0 .284.048.379.142l70.184 40.302s.237.142.284.236c.048.143.048.38.048.427v80.887s0 .378-.048.426c0 .047-.237.142-.284.237l-70.184 40.301s-.284.142-.379.142c-.095 0-.284-.047-.379-.142L87.317 152.87H53.835c.568.427 72.078 41.533 72.078 41.533 5.541 3.22 11.839 3.22 17.428 0l70.184-40.301c5.588-3.268 8.808-8.809 8.808-15.249V57.966c0-6.488-3.173-12.077-8.761-15.25h-.095z" fill="#210F59"/><path d="M134.675 115.174c9.282 0 16.764-7.53 16.764-16.765s-7.53-16.765-16.764-16.765c-9.235 0-16.765 7.53-16.765 16.765s7.53 16.765 16.765 16.765zm150.512-.714v-10.152h19.387V93.467h-19.387V82.54h22.119V72H273v53h35v-10.54h-22.813zM351 125l-14.113-19.468L348.756 89h-13.293l-4.79 7.338L325.666 89h-13.335l11.868 16.532L310 125h13.336l7.164-10.489L337.664 125H351z" fill="#210F59"/><path d="M379.355 88.874v3.974c-2.701-3.45-7.704-4.848-11.467-4.848C358.722 88 350 95.207 350 107s8.722 19 17.888 19c3.807 0 8.811-1.398 11.467-4.848v4.149H391V88.874h-11.645zm-8.944 26.337c-4.604 0-8.545-3.581-8.545-8.211 0-4.63 3.941-8.212 8.545-8.212 4.605 0 8.457 3.495 8.457 8.212s-3.94 8.211-8.457 8.211zM416.515 126c6.83 0 12.049-3.439 15.485-8.575l-8.655-5.615c-1.442 2.176-4.327 3.482-6.745 3.482-5.176 0-8.188-3.743-8.188-8.314 0-4.57 3.055-8.27 8.188-8.27 2.418 0 5.303 1.306 6.745 3.482L432 96.575C428.606 91.439 423.345 88 416.515 88 406.206 88 397 95.4 397 106.935c0 11.535 9.206 19.021 19.515 19.021V126zm36.799-37.005V76h-11.638v12.995H435v8.59h6.676V125h11.638V97.586H461v-8.548h-7.686v-.043zM529 125l-6.6-53h-6.382L497 111.32 477.896 72h-6.383L465 125h6.904l4.906-40.395 17.151 34.63h6.122l17.02-34.63 4.95 40.395H529zm42.956-18.109c0-11.562-7.75-18.891-18.171-18.891C543.363 88 535 95.33 535 106.891c0 11.561 8.363 19.109 18.785 19.109 7.049 0 13.617-3.272 16.858-9.598l-5.955-2.356c-2.058 3.665-6.174 5.541-10.641 5.541-6.261 0-10.946-3.185-11.997-9.686h29.775c.087-1.003.175-2.007.175-3.054l-.044.044zm-29.863-2.792c1.095-6.544 5.474-9.686 11.692-9.686 6.217 0 10.508 3.447 11.34 9.686h-23.032zM596 88.759h-7.805V75h-6.727v13.759H575v5.816h6.468V125h6.727V94.575H596v-5.816zm22.747-.716c-4.754 0-8.181 2.646-10.023 8.98V88.78H602V125h6.724v-13.273c0-9.543 2.827-17.22 9.98-17.22 1.37 0 3.298.303 5.225 1.257L625 89.388c-1.071-.694-3.683-1.388-6.21-1.388l-.043.043zm15.208-8.036c2.772 0 5.045-1.949 5.045-4.503 0-2.555-2.273-4.504-5.045-4.504-2.773 0-4.955 1.949-4.955 4.504 0 2.554 2.273 4.503 4.955 4.503zm-3.5 44.993h7.09V88.841h-7.09V125zm33.863.913c5.636 0 10.541-2.184 13.682-5.766l-4.216-4.455c-2.238 2.359-5.465 3.844-9.251 3.844-7.056 0-12.778-5.067-12.778-12.58 0-7.512 5.679-12.579 12.778-12.579 3.786 0 7.013 1.485 9.251 3.844L678 93.765C674.859 90.272 669.911 88 664.318 88 653.992 88 645 95.425 645 107s8.992 19 19.318 19v-.087zm31.395.043c7.673 0 14.287-4.144 14.287-10.907 0-4.144-1.984-8.682-9.613-10.514l-5.423-1.309c-2.381-.523-4.718-1.876-4.718-4.363 0-2.792 2.381-4.93 5.908-4.93 2.911 0 5.821 1.876 5.909 4.669h6.614c0-7.33-6.482-10.602-12.699-10.602-7.408 0-12.611 4.625-12.611 10.602s3.527 8.812 9.701 10.47l5.026 1.178c2.911.611 5.027 2.007 5.027 4.756 0 2.966-2.778 5.061-7.408 5.061-4.63 0-7.231-2.574-7.319-5.716H682c.309 7.504 7.099 11.649 13.713 11.649v-.044z" fill="#210F59"/></g><path d="M747.114 6.062H65.164c-19.616 0-35.518 15.902-35.518 35.518v113.658c0 19.617 15.902 35.519 35.518 35.519h681.95c19.616 0 35.518-15.902 35.518-35.519V41.58c0-19.616-15.902-35.518-35.518-35.518z" stroke="#E0E0E0" stroke-width="4.736"/><g clip-path="url(#clip1_318_8)"><path d="M132.418 53.082c-24.783 1.392-43.768 22.674-42.339 47.476 1.43 24.802 22.719 43.793 47.503 42.401 24.783-1.391 43.768-22.674 42.339-47.476-1.43-24.802-22.639-43.793-47.503-42.401z" fill="#210F59"/><path d="M132.776 58.648c-21.686 1.228-38.367 19.89-37.136 41.664 1.231 21.692 19.898 38.391 41.664 37.122 21.685-1.228 38.367-19.891 37.136-41.665-1.271-21.691-19.899-38.39-41.664-37.121z" fill="#D5FEEF"/><path d="M165.026 117.543c4.012-6.18 6.157-13.629 5.759-21.569-.913-15.716-11.796-28.486-26.173-32.456a5156.162 5156.162 0 01-3.615 40.642c4.806 1.923 17.158 8.144 24.029 13.424v-.041zM132.18 63.027c-18.906 1.064-33.363 17.272-32.21 36.18.198 2.661.595 5.28 1.349 7.695a11.558 11.558 0 01-.119-1.678c-1.23-21.978 15.49-40.764 37.414-42.033h.199c-2.105-.164-4.369-.287-6.593-.164h-.04z" fill="#fff"/><path d="M128.923 114.965c.834.9 2.304.9 3.138 0l25.062-25.949c.834-.9.834-2.373 0-3.274l-3.058-3.192a2.07 2.07 0 00-3.059 0l-20.454 21.2-9.612-9.904a2.07 2.07 0 00-3.058 0l-3.058 3.192c-.835.9-.835 2.374 0 3.274l14.139 14.653h-.04z" fill="#22BB84"/></g></g><defs><clipPath id="clip0_318_8"><path fill="#fff" d="M0 0h785v196.818H0z"/></clipPath><clipPath id="clip1_318_8"><path fill="#fff" transform="translate(90 53)" d="M0 0h90v90H0z"/></clipPath></defs></svg>
